!!!OTL: DU DU LIEGST MIR IM HERZEN
!!!ARE: Europa, Mitteleuropa, Deutschland, Norddeutschland
!!!SCT: E0578
!!!YEM: Copyright 1995, estate of Helmut Schaffrath.
**kern
*ICvox
*Ivox
!! Mixed meters:  3/8; 6/8
*M3/8
*k[b-]
*F:
=1
{4.a
=2
4.a
=3
8a
8g
8a
=4
4cc
8b-}
=5
{4.g
=6
4.g
=7
8g
8f
8g
=8
4a
8r}
=9
{4.a
=10
4.a
=11
8a
8g
8a
=12
4cc
8b-}
=13
{8g
8a
8b-
=14
8dd
8cc
8e
=15
4.f
=16
4.r}
=17
*M6/8
{4.dd
4.cc
=18
4.ee
4ff
8r}
=19
{8g
8a
8b-
8dd
8cc
8e
=20
4.f
4.r}
==
!!!AGN: Liebes - Lied
!!!ONB: ESAC (Essen Associative Code) Database: ERK1
!!!AMT: irregular
!!!AIN: vox
!!!EED: Helmut Schaffrath
!!!EEV: 1.0
*-
